images/Bluzelle.svg

<svg height="250" viewBox="0 0 250 250" width="250" xmlns="http://www.w3.org/2000/svg"><path d="m250 125c0 69.035156-55.964844 125-125 125s-125-55.964844-125-125 55.964844-125 125-125 125 55.964844 125 125zm0 0" fill="#18578c"/><g fill="#fff"><path d="m112.671875 95.386719-15.757813-15.757813-17.285156 17.285156 15.757813 15.757813c3.273437-7.804687 9.480469-14.011719 17.285156-17.285156zm0 0"/><path d="m154.613281 137.328125c-3.273437 7.804687-9.480469 14.011719-17.285156 17.285156l15.757813 15.757813 17.285156-17.285156zm0 0"/><path d="m81.789062 81.789062c5.960938-5.96875 5.960938-15.636718-.003906-21.601562s-15.636718-5.964844-21.601562 0-5.964844 15.632812 0 21.601562c5.964844 5.964844 15.636718 5.964844 21.605468 0zm0 0"/><path d="m168.210938 168.210938c-5.960938 5.96875-5.960938 15.636718.003906 21.601562s15.636718 5.964844 21.601562 0 5.964844-15.632812 0-21.601562c-5.964844-5.964844-15.636718-5.964844-21.605468 0zm0 0"/><path d="m95.386719 137.328125-15.757813 15.757813 17.285156 17.285156 15.757813-15.757813c-7.804687-3.273437-14.011719-9.480469-17.285156-17.285156zm0 0"/><path d="m154.613281 112.671875 15.757813-15.757813-17.285156-17.285156-15.757813 15.757813c7.804687 3.273437 14.011719 9.480469 17.285156 17.285156zm0 0"/><path d="m189.816406 81.789062c5.964844-5.96875 5.964844-15.636718 0-21.601562s-15.636718-5.964844-21.601562 0-5.964844 15.632812-.003906 21.601562c5.96875 5.964844 15.640624 5.964844 21.605468 0zm0 0"/><path d="m60.183594 168.210938c-5.964844 5.96875-5.964844 15.636718 0 21.601562s15.636718 5.964844 21.601562 0 5.964844-15.632812.003906-21.601562c-5.96875-5.964844-15.640624-5.964844-21.605468 0zm0 0"/><path d="m93.285156 120.417969h-20.230468v9.164062h20.230468c-.492187-3.035156-.492187-6.128906 0-9.164062zm0 0"/><path d="m156.714844 129.582031h20.230468v-9.164062h-20.230468c.492187 3.035156.492187 6.128906 0 9.164062zm0 0"/><path d="m216.667969 125c0 8.4375-6.84375 15.277344-15.28125 15.277344s-15.277344-6.839844-15.277344-15.277344 6.839844-15.277344 15.277344-15.277344 15.28125 6.839844 15.28125 15.277344zm0 0"/><path d="m63.890625 125c0 8.4375-6.839844 15.277344-15.277344 15.277344s-15.28125-6.839844-15.28125-15.277344 6.84375-15.277344 15.28125-15.277344 15.277344 6.839844 15.277344 15.277344zm0 0"/><path d="m120.417969 156.714844v20.230468h9.164062v-20.230468c-3.035156.492187-6.128906.492187-9.164062 0zm0 0"/><path d="m129.582031 93.285156v-20.230468h-9.164062v20.230468c3.035156-.492187 6.128906-.492187 9.164062 0zm0 0"/><path d="m140.277344 48.613281c0 8.4375-6.839844 15.277344-15.277344 15.277344s-15.277344-6.839844-15.277344-15.277344 6.839844-15.28125 15.277344-15.28125 15.277344 6.84375 15.277344 15.28125zm0 0"/><path d="m140.277344 201.386719c0 8.4375-6.839844 15.28125-15.277344 15.28125s-15.277344-6.84375-15.277344-15.28125 6.839844-15.277344 15.277344-15.277344 15.277344 6.839844 15.277344 15.277344zm0 0"/><path d="m147.917969 125c0 12.65625-10.261719 22.917969-22.917969 22.917969s-22.917969-10.261719-22.917969-22.917969 10.261719-22.917969 22.917969-22.917969 22.917969 10.261719 22.917969 22.917969zm0 0"/></g></svg>

<svg xmlns="http://www.w3.org/2000/svg" width="250" height="250"><path fill="#18578c" d="M250 125c0 69.035-55.965 125-125 125S0 194.035 0 125 55.965 0 125 0s125 55.965 125 125zm0 0"/><g fill="#fff"><path d="M112.672 95.387 96.914 79.629 79.63 96.914l15.758 15.758a32.284 32.284 0 0 1 17.285-17.285zM154.613 137.328a32.284 32.284 0 0 1-17.285 17.285l15.758 15.758 17.285-17.285zM81.79 81.79c5.96-5.97 5.96-15.638-.005-21.603s-15.637-5.964-21.601 0-5.965 15.633 0 21.602c5.964 5.965 15.636 5.965 21.605 0zM168.21 168.21c-5.96 5.97-5.96 15.638.005 21.602s15.637 5.965 21.601 0 5.965-15.632 0-21.601c-5.964-5.965-15.636-5.965-21.605 0zM95.387 137.328l-15.758 15.758 17.285 17.285 15.758-15.758a32.284 32.284 0 0 1-17.285-17.285zM154.613 112.672l15.758-15.758-17.285-17.285-15.758 15.758a32.284 32.284 0 0 1 17.285 17.285zM189.816 81.79c5.965-5.97 5.965-15.638 0-21.603s-15.636-5.964-21.601 0-5.965 15.633-.004 21.602c5.969 5.965 15.64 5.965 21.605 0zM60.184 168.21c-5.965 5.97-5.965 15.638 0 21.602s15.636 5.965 21.601 0 5.965-15.632.004-21.601c-5.969-5.965-15.64-5.965-21.605 0zM93.285 120.418h-20.23v9.164h20.23a28.622 28.622 0 0 1 0-9.164zM156.715 129.582h20.23v-9.164h-20.23a28.622 28.622 0 0 1 0 9.164zM216.668 125c0 8.438-6.844 15.277-15.281 15.277s-15.278-6.84-15.278-15.277 6.84-15.277 15.278-15.277 15.281 6.84 15.281 15.277zM63.89 125c0 8.438-6.84 15.277-15.277 15.277S33.332 133.437 33.332 125s6.844-15.277 15.281-15.277 15.278 6.84 15.278 15.277zM120.418 156.715v20.23h9.164v-20.23a28.622 28.622 0 0 1-9.164 0zM129.582 93.285v-20.23h-9.164v20.23a28.622 28.622 0 0 1 9.164 0zM140.277 48.613c0 8.438-6.84 15.278-15.277 15.278s-15.277-6.84-15.277-15.278 6.84-15.281 15.277-15.281 15.277 6.844 15.277 15.281zM140.277 201.387c0 8.437-6.84 15.281-15.277 15.281s-15.277-6.844-15.277-15.281 6.84-15.278 15.277-15.278 15.277 6.84 15.277 15.278zM147.918 125c0 12.656-10.262 22.918-22.918 22.918S102.082 137.656 102.082 125s10.262-22.918 22.918-22.918 22.918 10.262 22.918 22.918zm0 0"/></g></svg>
